X:119
T:Steirer
C:Michael Fischer, 1821-1899
R:Steirer
B:"Hundert Steirer aus dem Ausseerland", F .Hofer, Steirisches Volksliedwerk, Graz, undated,
N:im buch in D, nr. 10
A:Aussee, Salzkammergut
N:quelle einstimmig
M:3/4
L:1/8
K:G
dbfgBe | d3 c c2 | d3 cce | d3 B B2 |\
dbfgBe | d3 c c2 | d3 ccf | g6 :|
